FINK
CUT[SAG MIR DAS WORT DAS DEREINST MICH HAT BETOERT]
REG[Europa, Mitteleuropa, Deutschland; Irland]
KEY[F0199  16  G 4/4]
MEL[  1__1_2_3__3_4_  5_5_6_.53__0__
    5__4_.32__0__  4__3_.21__0__
    1__1_2_3__3_4_  5_5_6_.53__0__
    5__4_3_2__3_2_  1___.0__
    5__4_.32__-5_-5_  4__3_.21__0__
    5__4_.32__-5_-5_  4__3_.21__0__
    1__1_2_3__3_4_  5_5_6_.53__0__
    5__4_.32__3_2_  1___0___ //] >>
FCT[Liebes - Lied, Abschied]
